X:16684
T:The Fargo Polka
R:Polka
M:2/4
L:1/16
K:D
A2|:A2FA d2F2|A2G2 B2z2|A2ce a2c2|e2d2 f2z2|
A2FA d2F2|A2G2 B2z2|A2ce a2c2|d2f2 d2z2:|
|:fgfe d2ef|g2fg B2z2|g2ge c2eg|b2a2 a^ga2|
fgfe d2ef|g2fg B2z2|g2ge cABc|d2f2 d2z2:|
